X:1
T:Polka [4]
T:Polka [4]
L:1/8
M:2/4
K:D
V:1 treble 
V:1
 A/A/ | Af f/e/f | gB B/^A/B | c/B/A e/d/c | d/e/f/g/ ba | Af f/e/f | gB B/^A/B | c/B/A e/d/c | %8
 dd d z :|[K:A] (c/d/) | e2 (a>c) | eA A/G/A | (BE) (e>d) | c/B/A/G/ A/B/c/d/ | e2 (a>c) | %15
 eA A/G/A | BE e>G | AA A z :| %18

